X: 1
T: Deirdre's Fancy
M: 6/8
L: 1/8
R: jig
K: Dmaj
E |FAA A2 f |eBB B2 A |FAB def |agf e2 E |
FAA A2 f |eBB B2 A |FAB def |\
M:5/8
L:1/16
e2 f2 e2 d4\
M:6/8
L:1/8
:|
|:f |a2 b agf |g2 a gfe |fef agf |fed e2 f |
a2 b agf |g2 a gfe |fef age |edc d2 f |
a2 b agf |g2 a gfe |fef agf |fed e2 E |
FAA A2 f |eBB B2 A |FAB def |\
M:5/8
L:1/16
e6 d4 |]
